fa/svgs/regular/square-check.svg

<svg xmlns="http://www.w3.org/2000/svg" viewBox="0 0 448 512"><!--! Font Awesome Free 6.1.1 by @fontawesome - https://fontawesome.com License - https://fontawesome.com/license/free (Icons: CC BY 4.0, Fonts: SIL OFL 1.1, Code: MIT License) Copyright 2022 Fonticons, Inc.--><path d="M211.8 339.8c-10.9 10.9-28.7 10.9-39.6 0l-64-64c-10.93-10.9-10.93-28.7 0-39.6 10.9-10.9 28.7-10.9 39.6 0l44.2 44.2 108.2-108.2c10.9-10.9 28.7-10.9 39.6 0 10.9 10.9 10.9 28.7 0 39.6l-128 128zM0 96c0-35.35 28.65-64 64-64h320c35.3 0 64 28.65 64 64v320c0 35.3-28.7 64-64 64H64c-35.35 0-64-28.7-64-64V96zm48 0v320c0 8.8 7.16 16 16 16h320c8.8 0 16-7.2 16-16V96c0-8.84-7.2-16-16-16H64c-8.84 0-16 7.16-16 16z"/></svg>

<svg xmlns="http://www.w3.org/2000/svg" viewBox="0 0 448 512"><!--! Font Awesome Free 6.2.1 by @fontawesome - https://fontawesome.com License - https://fontawesome.com/license/free (Icons: CC BY 4.0, Fonts: SIL OFL 1.1, Code: MIT License) Copyright 2022 Fonticons, Inc. --><path d="M211.8 339.8C200.9 350.7 183.1 350.7 172.2 339.8L108.2 275.8C97.27 264.9 97.27 247.1 108.2 236.2C119.1 225.3 136.9 225.3 147.8 236.2L192 280.4L300.2 172.2C311.1 161.3 328.9 161.3 339.8 172.2C350.7 183.1 350.7 200.9 339.8 211.8L211.8 339.8zM0 96C0 60.65 28.65 32 64 32H384C419.3 32 448 60.65 448 96V416C448 451.3 419.3 480 384 480H64C28.65 480 0 451.3 0 416V96zM48 96V416C48 424.8 55.16 432 64 432H384C392.8 432 400 424.8 400 416V96C400 87.16 392.8 80 384 80H64C55.16 80 48 87.16 48 96z"/></svg>
